packages/blockchain-info-components/src/Images/img/refresh.svg

<svg fill="#0c6cf2" height="40" viewBox="0 0 40 40" width="40" xmlns="http://www.w3.org/2000/svg"><path d="m31.6665 13.3333-6.6667 6.6667h5c0 5.5166-4.4833 10-10 10-1.6833 0-3.2833-.4167-4.6666-1.1667l-2.4334 2.4333c2.05 1.3 4.4834 2.0667 7.1 2.0667 7.3667 0 13.3334-5.9667 13.3334-13.3333h5zm-21.66666 6.6667c0-5.5167 4.48336-10.00004 9.99996-10.00004 1.6834 0 3.2834.41664 4.6667 1.16664l2.4333-2.43331c-2.05-1.3-4.4833-2.06666-7.1-2.06666-7.3666 0-13.3333 5.96667-13.3333 13.33337h-5l6.66667 6.6666 6.66663-6.6666z"/></svg>

<svg width="40" height="40" viewBox="0 0 40 40" fill="#0C6CF2" xmlns="http://www.w3.org/2000/svg">
  <path d="M31.6665 13.3333L24.9998 20H29.9998C29.9998 25.5166 25.5165 30 19.9998 30C18.3165 30 16.7165 29.5833 15.3332 28.8333L12.8998 31.2666C14.9498 32.5666 17.3832 33.3333 19.9998 33.3333C27.3665 33.3333 33.3332 27.3666 33.3332 20H38.3332L31.6665 13.3333ZM9.99984 20C9.99984 14.4833 14.4832 9.99996 19.9998 9.99996C21.6832 9.99996 23.2832 10.4166 24.6665 11.1666L27.0998 8.73329C25.0498 7.43329 22.6165 6.66663 19.9998 6.66663C12.6332 6.66663 6.6665 12.6333 6.6665 20H1.6665L8.33317 26.6666L14.9998 20H9.99984Z" />
</svg>
